X:1
T:6 Lateinische Hymnen
T:Omnes de Saba
T:Josef Rheinberger
T:Omnes de Saba
T:Nr. 1 aus Sechs Hymnen Op. 58
T:CPDL - Creative Commons Attribution Non Commercial 3.0
T:CPDL - Creative Commons Attribution Non Commercial 3.0
T:CPDL - Creative Commons Attribution Non Commercial 3.0
T:CPDL - Creative Commons Attribution Non Commercial 3.0
C:Josef Rheinberger
Z:CPDL - Creative Commons Attribution Non Commercial 3.0
%%score [ 1 2 3 4 ]
L:1/8
Q:1/4=80
M:4/4
K:Eb
V:1 treble nm="Sopran"
V:2 treble nm="Alt"
V:3 treble-8 nm="Tenor"
V:4 bass nm="Bass"
V:1
"^Moderato"!f! e4 B3 B | E4 A4 | (A4 G3) B | B4 B2 cB | A6 BA | A2 G2 G2 AG | F4 G3 F | %7
w: Om- nes de|Sa- ba|ve- * ni-|ent, au- rum et|thus de- fe-|ren- tes, au- rum et|thus de- fe-|
 F2 E2 z2 E2 |!<(! A3 A B3 =B!<)! | c2!ff! c2 e2 a2 | (g4 f3 e) | e4 z4 | z8 | z4 z2!p! B2- | %14
w: ren- tes, et|lau- dem Do- mi-|ni a- nun- ti-|an- * *|tes.||qui-|
 B2 B2 B2 BB | c3 c B4 | z2!<(! B4 A2!<)! | G2!>(! G4 F2!>)! | E2!f! GE B2 G2 | eB g3 fed | %20
w: * a glo- ri- a|Do- mi- ni|su- per|te or- ta|est. Al- le- lu- ja,|al- le- lu- * * *|
 c2 z2 z4 | z2!mf! B4 B2 | B2 =AG (A2 B)c | c2 B4 z2 | z2!f! d2 d2 d2 | d2 (B2 c2) d2 | d>c c2 | %27
w: ja.|Stel- lam|e- jus in O- * ri-|en- te;|et ve- ni-|mus cum _ mu-|ne- ri- bus|
!p! e3 e |"^cresc." e2 d4 f2- | f>e e2!f! a3 a | ag fe d3 d | e6 z2 |!f! e4 B3 B | E4 A4 | %34
w: ad- o-|ra- re Do-|* mi- num, ad- o-|ra- * re * Do- mi-|num.|Om- nes de|Sa- ba|
 (A4 G2) B2 | B4 z2!f! d2- |!<(! d2 d2 d2 d2!<)! | f3 e d4- | d2 (d2"^dim." e2) c2 | =B4 _B4 | %40
w: ve- * ni-|ent ad-|* o- ra- re|Do- mi- num,|_ ad- * o-|ra- re,|
 z2!p! (B2 c2) A2 | G4 F4 | z2!pp! (F2 G2)"^rit." E2 | D4!<(! D4!<)! | D4!>(! (D3 E)!>)! | %45
w: ad- * o-|ra- re,|ad- * o-|ra- re|Do- mi- *|
 !fermata!E8 |] %46
w: num.|
V:2
 z2!f! G4 F2 | z2 E2 D2 C2 | B,6 G2 | F4 F2 GF | E6 FE | E2 D2 D2 ED | C4 D3 C | B,2 B,2 z2 B,E | %8
w: Om- nes|de Sa- ba|ve- ni-|ent, * * *|||||
!<(! E3 A A2 G2!<)! | A2!ff! A2 B2 c2 | (B4 A4) | G4 z4 | z8 | z4 z2!p! G2- | G2 G2 G2 GG | %15
w: |||||||
 A3 A G4 | z2!<(! G4 F2!<)! | D2!>(! D4 D2!>)! | E6 z2 | z4!f! B2 BB | c2 B2 (G2 B2) | %21
w: ||||Vi- di- mus|stel- lam e- *|
 F2!mf! F4 F2 | G2 C2 z4 | z2!f! DB, F2 D2 | BF d3 cB=A | G6 G2 | F>F F2 |!p! c3 c | %28
w: jus, stel- lam|e- jus,|al- le- lu- ja,|al- le- lu- * * *|ja, et|ve- ni- mus||
"^cresc." B2 B4 B2- | B>B B2!f! F3 F | E2 FG A3 A | G6 z2 | z8 | z4 z!f! CDE | F2 B,2 z GFE | %35
w: |||||Al- * le-|lu- ja, al- * le-|
 F2 B,2 z2!f! B2- |!<(! B2 B2 B2 B2!<)! | =B3 B B4- | B2 (=B2"^dim." c2) ^F2 | G4 G4 | %40
w: lu- ja, *|||||
 z2!p! E4 E2 | E4 D4 | z2!pp! D4 C2 | C4!<(! =B,4!<)! | _B,4!>(! B,4!>)! | !fermata!B,8 |] %46
w: ||||||
V:3
 z2!f! B4 B2 | z2 G2 F2 F2 | (F2 f4) e2 | d4 d2 ed | c6 dc | c2 B2 B2 cB | A4 B3 A | G2 G2 z2 G2 | %8
w: Om- nes|de Sa- ba|ve- * ni-|ent, au- rum et|thus de- fe-|ren- tes, au- rum et|thus de- fe-|ren- tes, et|
!<(! A2 c2 f2 _d2!<)! | c2!ff! c2 B2 A2 | Bcde d4 | e2!ff! e4 dc | B2 AG F2 GA | G>F E2 z2!p! e2- | %14
w: lau- dem Do- mi-|ni a- nun- ti-|an- * * * *|tes. Sur- ge et|il- lu- mi- na- re Je-|ru- sa- lem, qui-|
 e2 e2 e2 ee | e3 e e4 | z2!<(! (e2 d2) c2!<)! | =B2!>(! (B2 _B2) A2!>)! | G6 z2 | z4!f! e2 ee | %20
w: * a glo- ri- a|Do- mi- ni|su- * per|te or- * ta|est.|Vi- di- mus|
 e2 e2 (e2 dc) | d2!mf! d4 d2 | c2 cc (c2 d)e | e2 d4 z2 | z2!f! B2 B2 B2 | B2 (d2 c2) B2 | %26
w: stel- lam e- * *|jus, stel- lam|e- jus in O- * ri-|en- te;|et ve- ni-|mus cum _ mu-|
 B>=A A2 |!p! f3 f |"^cresc." f2 f4 d2- | d>e e2!f! d3 d | c2 c2 F2 B2 | B2!f! GE B2 G2 | %32
w: ne- ri- bus|ad- o-|ra- re Do-|* mi- num, ad- o-|ra- re Do- mi-|num. Al- le- lu- ja,|
 eB g3 fed | c4 c3 c | B2 f3 edc | d4 z2!f! f2- |!<(! f2 f2 f2 f2!<)! | d3 e f4- | %38
w: al- le- lu- * * *|ja, al- le-|lu- * * * *|ja, ad-|* o- ra- re|Do- mi- num,|
 f2 (f2"^dim." e2) d2 | d4 e4 | z2!p! (_d2 c2) c2 | (B6 =A2) | _A2!pp! (A2 G2) G2 | %43
w: _ ad- * o-|ra- re,|ad- * o-|ra- *|re, ad- * o-|
 ^F4!<(! G4!<)! | G4!>(! [=F_A]4!>)! | !fermata!G8 |] %46
w: ra- re|Do- mi-|num.|
V:4
 z2!f! E,4 D,2 | z2 C,2 F,2 E,2 | D,4 E,4 | B,,2 B,4 B,2- | B,2 B,,2 B,4- | B,2 B,,B,, B,2 B,,2 | %6
w: ||ve- ni-|ent, au- rum|_ et thus|_ de- fe- ren- tes,|
 z2 B,,4 B,,C, | _D,2 D,2 z2 D,2 |!<(! C,3 C, _D,2 E,2!<)! | A,2!ff! A,2 G,2 F,2 | (B,6 B,,2) | %11
w: de- fer- *|ren- tes, *||||
 E,2!ff! E4 DC | B,2 A,G, F,2 G,A, | G,>F, E,2 z2!p! E,2- | E,2 E,2 E,2 E,E, | A,3 A, E,4 | %16
w: |||||
 z2!<(! E,4 F,2!<)! | G,2!>(! G,,4 B,,2!>)! | E,6 z2 | z4!f! E2 G,G, | A,2 G,2 (E,2 G,2) | %21
w: |||||
 B,2!mf! (B,,2 C,2) D,2 | E,2 E,E, F,3 =A,, | B,,2 B,,4 z2 | z2!f! B,2 B,2 G,2 | =E,4 E,2 E,2 | %26
w: |||et ve- ni-|mus cum mu-|
 F,>F, F,2 |!p! =A,,3 A,, |"^cresc." B,,2 B,,2 _A,3 A, | A,2 G,2!f! =B,,3 B,, | C,2 A,,2 B,,3 B,, | %31
w: ne- ri- bus|ad- o-|ra- re, ad- o-|ra- re, ad- o-|ra- re Do- mi-|
 E,6 z2 | z8 | z2!f! A,G, F,2 E,2 | D,3 D, E,2 G,,2 | B,,2!f! D,B,, F,2 D,2 | B,F, D3 CB,A, | %37
w: num.||Om- * nes de|Sa- ba ve- ni-|ent. Al- le- lu- ja,|al- le- lu- * * *|
 G,2 !^!G,4 !^!G,2 | !^!A,2 !^!G,2"^dim." C,2 D,2 | G,,6!p! G,2- | G,2 G,2!<(! A,2 F,2!<)! | %41
w: ja, ad- o-|ra- re Do- mi-|num, ad-|* o- ra- re|
!>(! B,3 B,,!>)! B,,4 | z2!pp! (B,,2 =B,,2) C,2 | D,4!<(! G,,3 A,,!<)! | _B,,4!>(! B,,4!>)! | %45
w: Do- mi- num,|ad- * o-|ra- re _|Do- mi-|
 !fermata![E,,E,]8 |] %46
w: num.|

